<?xml version="1.0" encoding="UTF-8"?>
<map version="1.10" tiledversion="1.12.2" orientation="orthogonal" renderorder="right-down" width="20" height="12" tilewidth="16" tileheight="16" infinite="0" nextlayerid="6" nextobjectid="24">
 <tileset firstgid="1" source="../Dungeon Tileset.tsx"/>
 <tileset firstgid="101" source="../tools.tsx"/>
 <layer id="2" name="visual" width="20" height="12">
  <data encoding="csv">
79,31,3,4,5,4,2,5,5,4,5,2,5,4,4,3,4,4,26,79,
79,21,19,20,28,18,23,10,29,28,29,29,10,23,7,9,24,29,16,79,
79,31,9,8,18,17,23,19,28,30,8,17,19,30,10,24,8,23,16,79,
79,1,7,23,8,72,18,7,10,27,9,24,29,30,18,23,20,8,6,79,
4,5,19,10,9,18,23,23,51,52,53,54,8,30,19,8,18,7,5,4,
30,18,18,24,30,30,7,20,26,79,79,31,9,72,30,7,8,7,10,23,
7,18,27,9,7,7,7,8,16,79,79,11,8,24,28,7,7,30,27,28,
44,54,19,7,7,28,27,27,5,2,3,3,7,8,24,7,30,10,55,45,
79,1,7,7,18,7,23,28,18,7,24,7,30,7,10,10,72,28,36,79,
79,31,10,8,8,29,8,7,7,72,10,7,9,8,7,10,10,19,36,79,
79,11,9,7,23,18,7,8,10,7,7,7,9,7,7,7,7,7,6,79,
79,41,44,45,43,45,43,43,45,42,45,45,43,43,43,45,44,43,46,79
</data>
 </layer>
 <objectgroup id="5" name="collision">
  <object id="16" x="32" y="80">
   <polygon points="0,0 -32,0 -32,-80 288,-80 288,0 256,0 256,-64 0,-64"/>
  </object>
  <object id="19" x="128" y="80" width="64" height="48"/>
  <object id="22" x="0" y="128">
   <polyline points="0,0 32,0 32,64 288,64 288,0 320,0"/>
  </object>
 </objectgroup>
</map>
